cartflows/admin-core/assets/images/plugins/suretriggers/trusted-brands/Slack.svg

<svg width="96" height="24" viewBox="0 0 96 24" fill="none" xmlns="http://www.w3.org/2000/svg">
<path d="M30.8911 18.8983L32.0776 16.1467C33.3598 17.1021 35.0631 17.5989 36.7472 17.5989C37.9912 17.5989 38.7758 17.1212 38.7758 16.3951C38.7567 14.3696 31.3313 15.9556 31.2738 10.8728C31.2547 8.29321 33.5512 6.30595 36.8046 6.30595C38.7375 6.30595 40.6705 6.78365 42.0484 7.87283L40.9384 10.6817C39.6753 9.87919 38.106 9.30594 36.6133 9.30594C35.599 9.30594 34.9291 9.78365 34.9291 10.3951C34.9483 12.3824 42.4311 11.2932 42.5077 16.1467C42.5077 18.7836 40.2686 20.6371 37.0534 20.6371C34.6995 20.6371 32.5369 20.083 30.8911 18.8983ZM76.4197 15.1531C75.8264 16.1849 74.7164 16.8919 73.4342 16.8919C71.5396 16.8919 70.0086 15.3633 70.0086 13.4715C70.0086 11.5798 71.5396 10.0512 73.4342 10.0512C74.7164 10.0512 75.8264 10.7582 76.4197 11.79L79.6922 9.97473C78.4674 7.79639 76.1135 6.30595 73.4342 6.30595C69.4727 6.30595 66.2576 9.51614 66.2576 13.4715C66.2576 17.427 69.4727 20.6371 73.4342 20.6371C76.1326 20.6371 78.4674 19.1658 79.6922 16.9684L76.4197 15.1531ZM44.1535 0.363281H48.249V20.3696H44.1535V0.363281ZM81.2998 0.363281V20.3696H85.3953V14.3696L90.2563 20.3696H95.5L89.3185 13.2422L95.0407 6.59257H90.0266L85.3953 12.1149V0.363281H81.2998ZM60.4206 15.1913C59.8273 16.1658 58.6025 16.8919 57.2246 16.8919C55.3299 16.8919 53.7989 15.3633 53.7989 13.4715C53.7989 11.5798 55.3299 10.0512 57.2246 10.0512C58.6025 10.0512 59.8273 10.8155 60.4206 11.8091V15.1913ZM60.4206 6.59257V8.21677C59.7508 7.08939 58.0858 6.30595 56.3442 6.30595C52.7463 6.30595 49.914 9.47792 49.914 13.4524C49.914 17.427 52.7463 20.6371 56.3442 20.6371C58.0858 20.6371 59.7508 19.8537 60.4206 18.7263V20.3505H64.516V6.59257H60.4206Z" fill="#4B5563"/>
<path d="M5.57119 15.1707C5.57119 16.5656 4.44206 17.693 3.04501 17.693C1.64795 17.693 0.518829 16.5656 0.518829 15.1707C0.518829 13.7758 1.64795 12.6484 3.04501 12.6484H5.57119V15.1707ZM6.83427 15.1707C6.83427 13.7758 7.9634 12.6484 9.36045 12.6484C10.7575 12.6484 11.8866 13.7758 11.8866 15.1707V21.4765C11.8866 22.8714 10.7575 23.9987 9.36045 23.9987C7.9634 23.9987 6.83427 22.8714 6.83427 21.4765V15.1707Z" fill="#4B5563"/>
<path d="M9.36076 5.04458C7.96371 5.04458 6.83458 3.91719 6.83458 2.52229C6.83458 1.12739 7.96371 0 9.36076 0C10.7578 0 11.8869 1.12739 11.8869 2.52229V5.04458H9.36076ZM9.36076 6.32483C10.7578 6.32483 11.8869 7.45222 11.8869 8.84712C11.8869 10.242 10.7578 11.3694 9.36076 11.3694H3.02618C1.62913 11.3694 0.5 10.242 0.5 8.84712C0.5 7.45222 1.62913 6.32483 3.02618 6.32483H9.36076Z" fill="#4B5563"/>
<path d="M19.4848 8.84712C19.4848 7.45222 20.614 6.32483 22.011 6.32483C23.4081 6.32483 24.5372 7.45222 24.5372 8.84712C24.5372 10.242 23.4081 11.3694 22.011 11.3694H19.4848V8.84712ZM18.2218 8.84712C18.2218 10.242 17.0926 11.3694 15.6956 11.3694C14.2985 11.3694 13.1694 10.242 13.1694 8.84712V2.52229C13.1694 1.12739 14.2985 0 15.6956 0C17.0926 0 18.2218 1.12739 18.2218 2.52229V8.84712Z" fill="#4B5563"/>
<path d="M15.6956 18.9542C17.0926 18.9542 18.2218 20.0815 18.2218 21.4765C18.2218 22.8714 17.0926 23.9987 15.6956 23.9987C14.2985 23.9987 13.1694 22.8714 13.1694 21.4765V18.9542H15.6956ZM15.6956 17.693C14.2985 17.693 13.1694 16.5656 13.1694 15.1707C13.1694 13.7758 14.2985 12.6484 15.6956 12.6484H22.0302C23.4272 12.6484 24.5563 13.7758 24.5563 15.1707C24.5563 16.5656 23.4272 17.693 22.0302 17.693H15.6956Z" fill="#4B5563"/>
</svg>

<svg width="96" height="24" fill="none" xmlns="http://www.w3.org/2000/svg"><path d="m30.891 18.898 1.187-2.751c1.282.955 2.985 1.452 4.67 1.452 1.243 0 2.028-.478 2.028-1.204-.02-2.025-7.445-.44-7.502-5.522-.02-2.58 2.277-4.567 5.53-4.567 1.933 0 3.866.478 5.244 1.567l-1.11 2.809c-1.263-.803-2.832-1.376-4.325-1.376-1.014 0-1.684.478-1.684 1.09.02 1.986 7.502.897 7.579 5.75 0 2.638-2.24 4.491-5.455 4.491-2.353 0-4.516-.554-6.162-1.739Zm45.529-3.745a3.445 3.445 0 0 1-2.986 1.739 3.42 3.42 0 1 1 0-6.84c1.282 0 2.392.706 2.986 1.738l3.272-1.815a7.197 7.197 0 0 0-6.258-3.669c-3.961 0-7.176 3.21-7.176 7.166 0 3.955 3.215 7.165 7.176 7.165a7.135 7.135 0 0 0 6.258-3.669l-3.272-1.815ZM44.153.363h4.096V20.37h-4.096V.363Zm37.147 0V20.37h4.095v-6l4.861 6H95.5l-6.181-7.128 5.722-6.65h-5.014l-4.632 5.523V.363H81.3ZM60.42 15.191c-.593.975-1.818 1.7-3.195 1.7a3.42 3.42 0 1 1 0-6.84c1.377 0 2.602.764 3.196 1.758v3.382Zm0-8.598v1.624c-.67-1.128-2.334-1.911-4.076-1.911-3.598 0-6.43 3.172-6.43 7.146 0 3.975 2.832 7.185 6.43 7.185 1.742 0 3.407-.783 4.077-1.91v1.623h4.095V6.594h-4.095ZM5.571 15.17a2.522 2.522 0 0 1-2.526 2.523 2.522 2.522 0 1 1 0-5.045h2.526v2.523Zm1.263 0a2.522 2.522 0 0 1 2.526-2.522 2.522 2.522 0 0 1 2.527 2.523v6.306a2.522 2.522 0 0 1-2.527 2.522 2.522 2.522 0 0 1-2.526-2.522V15.17ZM9.36 5.045A2.522 2.522 0 1 1 9.36 0a2.522 2.522 0 0 1 2.527 2.522v2.523H9.36Zm0 1.28a2.522 2.522 0 1 1 0 5.044H3.027a2.522 2.522 0 1 1 0-5.044h6.335ZM19.485 8.847a2.522 2.522 0 0 1 2.526-2.522 2.522 2.522 0 1 1 0 5.044h-2.526V8.847Zm-1.263 0a2.522 2.522 0 0 1-2.526 2.522 2.522 2.522 0 0 1-2.527-2.522V2.522A2.522 2.522 0 0 1 15.696 0a2.522 2.522 0 0 1 2.526 2.522v6.325ZM15.696 18.954a2.522 2.522 0 1 1 0 5.045 2.522 2.522 0 0 1-2.527-2.522v-2.523h2.527Zm0-1.261a2.522 2.522 0 1 1 0-5.045h6.334a2.522 2.522 0 1 1 0 5.045h-6.334Z" fill="#4B5563"/></svg>
